X:1
T:Title
%%score { ( 1 3 ) | ( 2 4 ) }
L:1/8
M:4/4
K:G
V:1 treble nm="Grand Piano"
V:3 treble 
V:2 treble 
V:4 treble 
V:1
 z4 z2[Q:1/4=110] D2 | B2 B2 B2 BA | [EG]2 E2 D4 | E4[K:bass] F4 | [B,G]6 D2 | B2 B2 B2 BA | %6
 [CEG]2 [G,CE]2 [B,D]4 | [DF]4[K:bass] z4 | [F,D]6 D2 | D2 E2[K:treble] F2 ED | %10
 [DG]2 [DA]2 [DB]3 [DGB] | z4 z2 .[DB]2 | G2 E2 D3 d | d2 B2 A2 B2 | G2 [EA]2 [^DB]4 | %15
 [Ec]4 [CF]4 | [B,G]6 z2 | [GB]4 [AB]4 | [GB]6 z2 | [Fd]4 [Gd]4 | d6 [DFc]2 | B2 c2 A2 B2 | %22
 G2 [EA]2 [^DB]4 | [Ec]4 [CF]4 |[M:3/4] [B,G]6 |] %25
V:2
 z4 z2 D,2 | [G,DG]2 [G,DG]2 [G,DG]2 [G,B,^D]2 | [C,C]2 [E,G,C]2 [G,B,]4 | [G,C]4 C4 | %4
 [G,,D,]6 D,2 | [G,DG]2 [G,DG]2 [G,DG]2[K:bass] [G,B,^D]2 | C,2 E,2 G,4 | z2 ^G,2 A,,4 | D,6 D,2 | %9
 [D,F,C]2 [D,G,C]2 [D,A,C]2 [D,G,C][C,F,] | [B,,G,]2 [D,F,]2 G,3 G, | D,2 D,2 D,2 z C | %12
 [G,B,D]2 [G,_B,^C]2 [G,=B,]3 [G,B,D] | [G,B,D]2 [G,B,D]2 [F,C^D]2 [F,B,D]2 | %14
 [E,B,E]2 [C,F,]2 [B,,F,]4 | [A,,A,]4 [D,A,]4 | [G,,G,]6 z2 | [G,D]4 [F,^D]4 | [E,E]6 z2 | %19
 [D,A,]4 [D,B,]4 | z4 F2 D,2 | [G,DG]2 [G,EG]2[K:bass] [F,C^D]2 [F,B,D]2 | %22
 [E,B,E]2 [C,F,]2 [B,,F,]4 | [A,,A,]4 [D,A,]4 |[M:3/4] [G,,D,G,]6 |] %25
V:3
 x8 | x8 | x8 | z2[K:bass] A,,2 z2 D,2 | x8 | x8 | x8 | A,2 z2[K:bass] [G,^CE]4 | x8 | %9
 x4[K:treble] x4 | x8 | [CFB]2 [DFc]2 [CFA]2 F-[FA] | x8 | x8 | x8 | x8 | x8 | x8 | x8 | x8 | %20
 A4 z4 | x8 | x8 | x8 |[M:3/4] x6 |] %25
V:4
 x8 | x8 | x8 | C,2 z2 [D,A,]2 z2 | x8 | x6[K:bass] x2 | x8 | A,,4 z4 | x8 | x8 | x8 | z4 z2 D,2 | %12
 x8 | x8 | x8 | x8 | x8 | x8 | x8 | x8 | [D,C]6 z2 | x4[K:bass] x4 | x8 | x8 |[M:3/4] x6 |] %25

